documentation/public/assets/images/checkbox-dos-and-donts-03.svg

<svg width="100" height="18" viewBox="0 0 100 18" fill="none" xmlns="http://www.w3.org/2000/svg">
<rect x="0.860352" y="2" width="16" height="16" rx="3" fill="#1E71F6"/>
<path d="M12.3403 5.34229C12.601 4.98299 13.1198 4.89197 13.4991 5.13899C13.8783 5.386 13.9744 5.87751 13.7136 6.2368L7.60264 14.6578C7.26864 15.118 6.5496 15.1132 6.22258 14.6485L4.0004 11.4906C3.74511 11.1278 3.84858 10.6376 4.23152 10.3958C4.61445 10.1539 5.13183 10.252 5.38712 10.6147L6.92656 12.8024L12.3403 5.34229Z" fill="white"/>
<path d="M32.4961 12.6333L31.2656 9.46143H27.2598L26.0361 12.6333H24.8604L28.7705 2.59814H29.8164L33.6992 12.6333H32.4961ZM30.917 8.4292L29.748 5.27783C29.7207 5.1958 29.6751 5.06136 29.6113 4.87451C29.5521 4.68766 29.4906 4.49398 29.4268 4.29346C29.363 4.09294 29.3105 3.93115 29.2695 3.80811C29.224 3.99495 29.1738 4.1818 29.1191 4.36865C29.069 4.55094 29.0189 4.72184 28.9688 4.88135C28.9186 5.0363 28.8753 5.16846 28.8389 5.27783L27.6494 8.4292H30.917Z" fill="black"/>
<path d="M38.3203 5.00439C38.4707 5.00439 38.6279 5.01351 38.792 5.03174C38.9561 5.04541 39.1019 5.06592 39.2295 5.09326L39.0859 6.146C38.9629 6.1141 38.8262 6.08903 38.6758 6.0708C38.5254 6.05257 38.3841 6.04346 38.252 6.04346C37.9512 6.04346 37.6663 6.10498 37.3975 6.22803C37.1331 6.34652 36.9007 6.51969 36.7002 6.74756C36.4997 6.97087 36.3424 7.24202 36.2285 7.56104C36.1146 7.87549 36.0576 8.2264 36.0576 8.61377V12.6333H34.916V5.14111H35.8594L35.9824 6.52197H36.0303C36.1852 6.24398 36.3721 5.99105 36.5908 5.76318C36.8096 5.53076 37.0625 5.34619 37.3496 5.20947C37.6413 5.07275 37.9648 5.00439 38.3203 5.00439Z" fill="black"/>
<path d="M44.0488 5.00439C44.1992 5.00439 44.3564 5.01351 44.5205 5.03174C44.6846 5.04541 44.8304 5.06592 44.958 5.09326L44.8145 6.146C44.6914 6.1141 44.5547 6.08903 44.4043 6.0708C44.2539 6.05257 44.1126 6.04346 43.9805 6.04346C43.6797 6.04346 43.3949 6.10498 43.126 6.22803C42.8617 6.34652 42.6292 6.51969 42.4287 6.74756C42.2282 6.97087 42.071 7.24202 41.957 7.56104C41.8431 7.87549 41.7861 8.2264 41.7861 8.61377V12.6333H40.6445V5.14111H41.5879L41.7109 6.52197H41.7588C41.9137 6.24398 42.1006 5.99105 42.3193 5.76318C42.5381 5.53076 42.791 5.34619 43.0781 5.20947C43.3698 5.07275 43.6934 5.00439 44.0488 5.00439Z" fill="black"/>
<path d="M47.5078 5.14111V12.6333H46.373V5.14111H47.5078ZM46.9541 2.33838C47.141 2.33838 47.3005 2.3999 47.4326 2.52295C47.5693 2.64144 47.6377 2.82829 47.6377 3.0835C47.6377 3.33415 47.5693 3.521 47.4326 3.64404C47.3005 3.76709 47.141 3.82861 46.9541 3.82861C46.7581 3.82861 46.5941 3.76709 46.4619 3.64404C46.3343 3.521 46.2705 3.33415 46.2705 3.0835C46.2705 2.82829 46.3343 2.64144 46.4619 2.52295C46.5941 2.3999 46.7581 2.33838 46.9541 2.33838Z" fill="black"/>
<path d="M51.5615 12.6333L48.7178 5.14111H49.9346L51.582 9.67334C51.696 9.98324 51.8122 10.325 51.9307 10.6987C52.0492 11.0724 52.1312 11.3732 52.1768 11.6011H52.2246C52.2793 11.3732 52.3704 11.0724 52.498 10.6987C52.6257 10.3205 52.7419 9.97868 52.8467 9.67334L54.4941 5.14111H55.7109L52.8604 12.6333H51.5615Z" fill="black"/>
<path d="M59.7988 5.00439C60.4368 5.00439 60.9837 5.14567 61.4395 5.42822C61.8952 5.71077 62.2438 6.10726 62.4854 6.61768C62.7269 7.12354 62.8477 7.71598 62.8477 8.39502V9.09912H57.6729C57.6865 9.97868 57.9053 10.6486 58.3291 11.1089C58.7529 11.5692 59.3499 11.7993 60.1201 11.7993C60.5941 11.7993 61.0133 11.756 61.3779 11.6694C61.7425 11.5828 62.1208 11.4552 62.5127 11.2866V12.2847C62.1344 12.4533 61.7585 12.5763 61.3848 12.6538C61.0156 12.7313 60.5781 12.77 60.0723 12.77C59.3522 12.77 58.7233 12.6242 58.1855 12.3325C57.6523 12.0363 57.2376 11.6034 56.9414 11.0337C56.6452 10.464 56.4971 9.76676 56.4971 8.94189C56.4971 8.13525 56.6315 7.43799 56.9004 6.8501C57.1738 6.25765 57.5566 5.80192 58.0488 5.48291C58.5456 5.1639 59.1289 5.00439 59.7988 5.00439ZM59.7852 5.93408C59.179 5.93408 58.696 6.13232 58.3359 6.52881C57.9759 6.92529 57.7617 7.479 57.6934 8.18994H61.6582C61.6536 7.74333 61.583 7.3514 61.4463 7.01416C61.3141 6.67236 61.1113 6.40804 60.8379 6.22119C60.5645 6.02979 60.2135 5.93408 59.7852 5.93408Z" fill="black"/>
<path d="M71.2969 5.00439C71.9349 5.00439 72.4818 5.14567 72.9375 5.42822C73.3932 5.71077 73.7419 6.10726 73.9834 6.61768C74.2249 7.12354 74.3457 7.71598 74.3457 8.39502V9.09912H69.1709C69.1846 9.97868 69.4033 10.6486 69.8271 11.1089C70.251 11.5692 70.848 11.7993 71.6182 11.7993C72.0921 11.7993 72.5114 11.756 72.876 11.6694C73.2406 11.5828 73.6188 11.4552 74.0107 11.2866V12.2847C73.6325 12.4533 73.2565 12.5763 72.8828 12.6538C72.5137 12.7313 72.0762 12.77 71.5703 12.77C70.8503 12.77 70.2214 12.6242 69.6836 12.3325C69.1504 12.0363 68.7357 11.6034 68.4395 11.0337C68.1432 10.464 67.9951 9.76676 67.9951 8.94189C67.9951 8.13525 68.1296 7.43799 68.3984 6.8501C68.6719 6.25765 69.0547 5.80192 69.5469 5.48291C70.0436 5.1639 70.627 5.00439 71.2969 5.00439ZM71.2832 5.93408C70.6771 5.93408 70.194 6.13232 69.834 6.52881C69.474 6.92529 69.2598 7.479 69.1914 8.18994H73.1562C73.1517 7.74333 73.0811 7.3514 72.9443 7.01416C72.8122 6.67236 72.6094 6.40804 72.3359 6.22119C72.0625 6.02979 71.7116 5.93408 71.2832 5.93408Z" fill="black"/>
<path d="M79.0762 5.01807C79.9694 5.01807 80.6325 5.21859 81.0654 5.61963C81.4984 6.02067 81.7148 6.66097 81.7148 7.54053V12.6333H80.8877L80.6689 11.5259H80.6143C80.4046 11.7993 80.1859 12.0295 79.958 12.2163C79.7301 12.3986 79.4658 12.5376 79.165 12.6333C78.8688 12.7244 78.5042 12.77 78.0713 12.77C77.6156 12.77 77.21 12.6903 76.8545 12.5308C76.5036 12.3713 76.2256 12.1297 76.0205 11.8062C75.82 11.4826 75.7197 11.0724 75.7197 10.5757C75.7197 9.82829 76.016 9.25407 76.6084 8.85303C77.2008 8.45199 78.1032 8.23324 79.3154 8.19678L80.6074 8.14209V7.68408C80.6074 7.03695 80.4684 6.5835 80.1904 6.32373C79.9124 6.06396 79.5205 5.93408 79.0146 5.93408C78.6227 5.93408 78.249 5.99105 77.8936 6.10498C77.5381 6.21891 77.2008 6.35335 76.8818 6.5083L76.5332 5.64697C76.8704 5.4738 77.2578 5.32568 77.6953 5.20264C78.1328 5.07959 78.5931 5.01807 79.0762 5.01807ZM80.5938 8.94189L79.4521 8.98975C78.5179 9.0262 77.8594 9.17887 77.4766 9.44775C77.0938 9.71663 76.9023 10.0972 76.9023 10.5894C76.9023 11.0177 77.0322 11.3345 77.292 11.5396C77.5518 11.7446 77.8958 11.8472 78.3242 11.8472C78.9896 11.8472 79.5342 11.6626 79.958 11.2935C80.3818 10.9243 80.5938 10.3706 80.5938 9.63232V8.94189Z" fill="black"/>
<path d="M87.457 5.00439C87.6074 5.00439 87.7646 5.01351 87.9287 5.03174C88.0928 5.04541 88.2386 5.06592 88.3662 5.09326L88.2227 6.146C88.0996 6.1141 87.9629 6.08903 87.8125 6.0708C87.6621 6.05257 87.5208 6.04346 87.3887 6.04346C87.0879 6.04346 86.8031 6.10498 86.5342 6.22803C86.2699 6.34652 86.0374 6.51969 85.8369 6.74756C85.6364 6.97087 85.4792 7.24202 85.3652 7.56104C85.2513 7.87549 85.1943 8.2264 85.1943 8.61377V12.6333H84.0527V5.14111H84.9961L85.1191 6.52197H85.167C85.3219 6.24398 85.5088 5.99105 85.7275 5.76318C85.9463 5.53076 86.1992 5.34619 86.4863 5.20947C86.778 5.07275 87.1016 5.00439 87.457 5.00439Z" fill="black"/>
<path d="M90.9229 12.6333H89.7812V1.99658H90.9229V12.6333Z" fill="black"/>
<path d="M92.1396 5.14111H93.3564L95.0107 9.48877C95.1064 9.74398 95.1953 9.99007 95.2773 10.2271C95.3594 10.4595 95.4323 10.6828 95.4961 10.897C95.5599 11.1112 95.61 11.3185 95.6465 11.519H95.6943C95.7581 11.2912 95.8493 10.9927 95.9678 10.6235C96.0863 10.2498 96.2139 9.8693 96.3506 9.48193L97.916 5.14111H99.1396L95.8789 13.7339C95.7057 14.1942 95.5029 14.5952 95.2705 14.937C95.0426 15.2788 94.7646 15.5409 94.4365 15.7231C94.1084 15.91 93.7119 16.0034 93.2471 16.0034C93.0329 16.0034 92.8438 15.9897 92.6797 15.9624C92.5156 15.9396 92.3743 15.9123 92.2559 15.8804V14.9712C92.3561 14.994 92.4769 15.0145 92.6182 15.0327C92.764 15.0509 92.9144 15.0601 93.0693 15.0601C93.3519 15.0601 93.5957 15.0054 93.8008 14.896C94.0104 14.7912 94.1904 14.6362 94.3408 14.4312C94.4912 14.2261 94.6211 13.9823 94.7305 13.6997L95.1406 12.647L92.1396 5.14111Z" fill="black"/>
</svg>

<svg width="100" height="18" fill="none" xmlns="http://www.w3.org/2000/svg"><rect x=".86" y="2" width="16" height="16" rx="3" fill="#1E71F6"/><path d="M12.34 5.34a.86.86 0 0 1 1.16-.2c.38.25.47.74.21 1.1l-6.1 8.42a.86.86 0 0 1-1.39-.01L4 11.49a.76.76 0 0 1 .23-1.1.86.86 0 0 1 1.16.22l1.54 2.2 5.41-7.47Z" fill="#fff"/><path d="m32.5 12.63-1.23-3.17h-4.01l-1.22 3.17h-1.18L28.77 2.6h1.05l3.88 10.03h-1.2Zm-1.58-4.2-1.17-3.15a63.12 63.12 0 0 0-.32-.99l-.16-.48a12.64 12.64 0 0 1-.43 1.47l-1.2 3.15h3.28ZM38.32 5a4.28 4.28 0 0 1 .91.1l-.14 1.05a3.15 3.15 0 0 0-.84-.1 2.03 2.03 0 0 0-1.55.7c-.2.22-.36.5-.47.81-.12.32-.17.67-.17 1.05v4.02h-1.14V5.14h.94l.12 1.38h.05c.16-.28.34-.53.56-.76.22-.23.47-.41.76-.55.3-.14.61-.2.97-.2Zm5.73 0a4.28 4.28 0 0 1 .9.1l-.14 1.05a3.15 3.15 0 0 0-.83-.1 2.03 2.03 0 0 0-1.55.7c-.2.22-.36.5-.47.81-.12.32-.17.67-.17 1.05v4.02h-1.15V5.14h.95l.12 1.38h.05c.15-.28.34-.53.56-.76A2.26 2.26 0 0 1 44.05 5Zm3.45.14v7.5h-1.13v-7.5h1.14Zm-.55-2.8c.2 0 .35.06.48.18.14.12.2.3.2.56 0 .25-.06.44-.2.56a.68.68 0 0 1-.48.19.7.7 0 0 1-.49-.19c-.13-.12-.19-.3-.19-.56 0-.25.06-.44.2-.56a.7.7 0 0 1 .48-.18Zm4.61 10.29-2.84-7.49h1.21l1.65 4.53a23.97 23.97 0 0 1 .6 1.93h.04a219.3 219.3 0 0 1 .62-1.93l1.65-4.53h1.22l-2.85 7.5h-1.3ZM59.8 5c.64 0 1.18.15 1.64.43.46.28.8.68 1.05 1.19.24.5.36 1.1.36 1.78v.7h-5.18c.02.88.24 1.55.66 2 .42.47 1.02.7 1.79.7a5.47 5.47 0 0 0 2.4-.51v1a5.53 5.53 0 0 1-2.45.48 3.9 3.9 0 0 1-1.88-.44c-.54-.3-.95-.73-1.25-1.3a4.5 4.5 0 0 1-.44-2.09 5 5 0 0 1 .4-2.09c.27-.6.66-1.05 1.15-1.37.5-.32 1.08-.48 1.75-.48Zm-.01.93c-.61 0-1.1.2-1.45.6-.36.4-.58.95-.65 1.66h3.97c0-.45-.08-.84-.21-1.18-.14-.34-.34-.6-.61-.79a1.8 1.8 0 0 0-1.05-.29ZM71.3 5c.63 0 1.18.15 1.64.43.45.28.8.68 1.04 1.19.24.5.37 1.1.37 1.78v.7h-5.18c.01.88.23 1.55.66 2 .42.47 1.02.7 1.79.7a5.47 5.47 0 0 0 2.4-.51v1a5.52 5.52 0 0 1-2.45.48 3.9 3.9 0 0 1-1.89-.44c-.53-.3-.94-.73-1.24-1.3A4.5 4.5 0 0 1 68 8.94a5 5 0 0 1 .4-2.09c.27-.6.65-1.05 1.15-1.37.5-.32 1.08-.48 1.75-.48Zm-.02.93c-.6 0-1.09.2-1.45.6-.36.4-.57.95-.64 1.66h3.97c0-.45-.08-.84-.22-1.18-.13-.34-.33-.6-.6-.79a1.8 1.8 0 0 0-1.06-.29Zm7.8-.91c.89 0 1.55.2 1.99.6.43.4.64 1.04.64 1.92v5.1h-.82l-.22-1.11h-.06c-.2.27-.42.5-.65.69-.23.18-.5.32-.8.41a3.77 3.77 0 0 1-2.3-.1 1.9 1.9 0 0 1-.84-.72 2.3 2.3 0 0 1-.3-1.23c0-.75.3-1.33.89-1.73.6-.4 1.5-.62 2.7-.65l1.3-.06v-.46c0-.64-.14-1.1-.42-1.36a1.66 1.66 0 0 0-1.18-.39c-.39 0-.76.06-1.12.17-.35.12-.69.25-1 .4l-.36-.85a5.17 5.17 0 0 1 2.55-.63Zm1.51 3.92L79.45 9c-.93.04-1.6.19-1.97.46a1.3 1.3 0 0 0-.58 1.14c0 .43.13.74.4.95.25.2.6.3 1.02.3a2.4 2.4 0 0 0 1.64-.55c.42-.37.63-.92.63-1.66v-.69ZM87.46 5a4.28 4.28 0 0 1 .9.1l-.14 1.05a3.15 3.15 0 0 0-.83-.1 2.03 2.03 0 0 0-1.55.7c-.2.22-.36.5-.47.81-.12.32-.18.67-.18 1.05v4.02h-1.14V5.14H85l.12 1.38h.05c.15-.28.34-.53.56-.76A2.26 2.26 0 0 1 87.46 5Zm3.46 7.63h-1.14V2h1.14v10.63Zm1.22-7.49h1.22L95 9.5a30.6 30.6 0 0 1 .49 1.4l.15.63h.04a26.15 26.15 0 0 1 .66-2.04l1.57-4.34h1.22l-3.26 8.6a5.7 5.7 0 0 1-.6 1.2c-.24.34-.52.6-.84.78-.33.19-.73.28-1.2.28a3.49 3.49 0 0 1-.98-.12v-.9a3.92 3.92 0 0 0 .8.08 1.53 1.53 0 0 0 1.28-.63c.15-.2.28-.45.4-.73l.4-1.05-3-7.5Z" fill="#000"/></svg>
